X:19
T:Sweets of May
R:set dance
Z:id:hn-setdance-19
M:6/8
L:1/8
K:G
B2G AFD | GAG GAB | AGG GAB | c2B Adc |
B2G AFD | GAG GBc | BGG AFD |1 GAG G2d :|2 G3 F2G ||
|: ABA A2G | E2F G2E | ABA c2d | e2d c2B |
ABA A2G | E2F G2E | ABA BAG |1 A3 F2G :|2 A3 ABc ||
|: d3 d^cd | D3 DED | c3 cBc | D3 DEF |
G2D G2A | B2G B2c | d3 DEF |1 G3 ABc :|2 G3 G2d ||

